common/src/main/resources/glyphs/plugins/datagrip/expui/stream.svg

<svg xmlns="http://www.w3.org/2000/svg" width="16" height="16" data-big="true" viewBox="0 0 24 24"><path fill="#4DD0E1" d="M20 12h2v2h-2c-1.38 0-2.74-.35-4-1-2.5 1.3-5.5 1.3-8 0-1.26.65-2.63 1-4 1H2v-2h2c1.39 0 2.78-.47 4-1.33 2.44 1.71 5.56 1.71 8 0 1.22.86 2.61 1.33 4 1.33m0-6h2v2h-2c-1.38 0-2.74-.35-4-1-2.5 1.3-5.5 1.3-8 0-1.26.65-2.63 1-4 1H2V6h2c1.39 0 2.78-.47 4-1.33 2.44 1.71 5.56 1.71 8 0C17.22 5.53 18.61 6 20 6m0 12h2v2h-2c-1.38 0-2.74-.35-4-1-2.5 1.3-5.5 1.3-8 0-1.26.65-2.63 1-4 1H2v-2h2c1.39 0 2.78-.47 4-1.33 2.44 1.71 5.56 1.71 8 0 1.22.86 2.61 1.33 4 1.33"/></svg>

<!--
  - The MIT License (MIT)
  -
  - Copyright (c) 2015-2024 Elior "Mallowigi" Boukhobza
  -
  - Permission is hereby granted, free of charge, to any person obtaining a copy
  - of this software and associated documentation files (the "Software"), to deal
  - in the Software without restriction, including without limitation the rights
  - to use, copy, modify, merge, publish, distribute, sublicense, and/or sell
  - copies of the Software, and to permit persons to whom the Software is
  - furnished to do so, subject to the following conditions:
  -
  - The above copyright notice and this permission notice shall be included in all
  - copies or substantial portions of the Software.
  -
  - THE SOFTWARE IS PROVIDED "AS IS", WITHOUT WARRANTY OF ANY KIND, EXPRESS OR
  - IMPLIED, INCLUDING BUT NOT LIMITED TO THE WARRANTIES OF MERCHANTABILITY,
  - FITNESS FOR A PARTICULAR PURPOSE AND NONINFRINGEMENT. IN NO EVENT SHALL THE
  - AUTHORS OR COPYRIGHT HOLDERS BE LIABLE FOR ANY CLAIM, DAMAGES OR OTHER
  - LIABILITY, WHETHER IN AN ACTION OF CONTRACT, TORT OR OTHERWISE, ARISING FROM,
  - OUT OF OR IN CONNECTION WITH THE SOFTWARE OR THE USE OR OTHER DEALINGS IN THE
  - SOFTWARE.
  -->

<svg data-big="true" xmlns="http://www.w3.org/2000/svg" viewBox="0 0 24 24" width="16px" height="16px">
  <path fill="#4DD0E1"
        d="M20,12H22V14H20C18.62,14 17.26,13.65 16,13C13.5,14.3 10.5,14.3 8,13C6.74,13.65 5.37,14 4,14H2V12H4C5.39,12 6.78,11.53 8,10.67C10.44,12.38 13.56,12.38 16,10.67C17.22,11.53 18.61,12 20,12M20,6H22V8H20C18.62,8 17.26,7.65 16,7C13.5,8.3 10.5,8.3 8,7C6.74,7.65 5.37,8 4,8H2V6H4C5.39,6 6.78,5.53 8,4.67C10.44,6.38 13.56,6.38 16,4.67C17.22,5.53 18.61,6 20,6M20,18H22V20H20C18.62,20 17.26,19.65 16,19C13.5,20.3 10.5,20.3 8,19C6.74,19.65 5.37,20 4,20H2V18H4C5.39,18 6.78,17.53 8,16.67C10.44,18.38 13.56,18.38 16,16.67C17.22,17.53 18.61,18 20,18Z"/>
</svg>
